!!!ONB: MCCC : IJH0461_01 : Extracted Monophonic Melody
!!!COM: Haydn, Joseph
!!!OPR: String Quartet in G major
!!!OMV: 1
!!!SCT: Hob.III:29 ; Op.17 No.5
!!!ODT: 1771///
**kern
*thru
*k[f#]
*G:
*clefG
*M4/4
8d
=1
4g
32a
16.cc
32f#
16.a
32g
16.b
8d
8r
16dd
16b
=2
4b
8cc
16b
16cc
8cc
8a
8a
16ee
16cc
=3
8cc
8b
8b
16gg
16ee
4dd
8r
8d
=4
4g
32a
16.cc
32f#
16.a
32g
16.b
8d
8r
16dd
16b
=5
4b
8cc
16b
16cc
8cc
8a
8a
16ee
16cc
=6
8cc
8b
8b
16gg
16ee
8dd
16gg
16ee
8dd
16gg
16ee
=7
2dd
8cc#
8dd
8cc
8a
=8
8g
8dd
8ee
8cc
4b
8a
8r
=9
8r
8B
8c
8c
8B
8dd
8dd
8dd
=10
3..dd[
24dd]
24bb
24ff#
24gg
24bb
24ff#
24gg
24bb
24ff#
24gg
=11
4dd#
8ee
8dd
16dd
16cc
4cc
8b
=12
16b
16a
4a
16f#
16d
4g
4r
=13
2e
4d#
16b
8bb
16aa[
=14
16aa]
8gg
8ff#
8ee
16ff#
8dd#
16cc#
16b
16a#
16b
16cc
16b
=15
16g#
16a
16b
16a
16f#
16g
16a
16g
16f#
16e
16a#
16b
16a
16g
16f#
16e
=16
2d
4c#
16a
8aa
16gg[
=17
16gg]
8ff#
8ee
8dd
16ee
8cc#
16b
16a
8a
8cc#
=18
8dd
8ee
8ff#
8gg#
4.aa
8bb
=19
8gg#
8aa
8ff#
8gg
8ee#
8ff#
8dd#
8ee
=20
8cc#
8dd
8g#
8a
2g
=21
8f#
32f#
16.a
32g
16.b
32e
16.cc#
32f#
16.dd
32cc#
16.ee
32dd
16.ff#
32ee
16.gg
=22
32ff#
16.aa
32aa
16.ddd
8r
32b
16.bb
8r
32g
16.gg
8r
32f#
16.ff#
=23
8r
8ee
8ee
8ee
4ee
16dd
16cc#
16b
16a
=24
8dd
8r
16cc#
16dd
16gg
16ff#
8ee
16dd#
16ee
16dd#
16ee
16dd#
16ee
=25
16dd#
16ee
16ff#
16ee
16dd
16cc#
16b
16a
8dd
8r
24d
24aa
24aa
24aa
24aa
24aa
=26
24aa
24aa
24aa
24aa
24aa
24aa
24ccc#
24ccc#
24ccc#
24aa
24aa
24aa
24ddd
24ddd
24ddd
24aa
24aa
24aa
24d
24aa
24aa
24aa
24aa
24aa
=27
24aa
24aa
24aa
24aa
24aa
24aa
24ccc#
24ccc#
24ccc#
24aa
24aa
24aa
24ddd
24ddd
24ddd
24aa
24aa
24aa
24ccc
24ccc
24ccc
24aa
24aa
24aa
=28
6..bb
24ccc#
24aa#
24bb
24ccc#
24aa#
24bb
24ggg
24ggg
24ggg
24ggg
24ggg
24ggg
24fff#
24eee
24ddd
24ccc#
24bb
=29
24aa
24fff#
24eee
24ddd
24ccc#
24bb
24aa
24bb
24aa
8gg
24ff#
24fff#
24eee
24ddd
24ccc#
24bb
24aa
24bb
24aa
8gg
=30
24ff#
24fff#
24ddd
24aa
24ddd
24aa
24ff#
24aa
24ff#
24dd
24ff#
24dd
8a
8cc
8cc
8cc
=31
4cc
4d
8d
8ddd
8bb
8gg
=32
24ff#
24ee
24dd
24cc#
24b
24a
4ee
4dd
8r
8ccc#
=33
4ddd
8r
8ccc#
4ddd
8r
8a
=34
16cc#
16dd
16ee
16dd
16gg
16ff#
16ee
16ff#
16ee
16dd
16cc#
16dd
16cc#
16b
16a
16g
=35
2f#
4g
8r
8b
=36
16dd#
16ee
16ff#
16ee
16gg
16ff#
16aa
16gg
4bb
8aa
8cc#
=37
4dd
32ee
16.gg
32cc#
16.ee
32dd
16.ff#
8a
8r
16aa
16ff#
=38
4ff#
8gg
16ff#
16gg
8gg
8ee
8ee
16bb
16gg
=39
8gg
8ff#
8ff#
16ddd
16bb
4aa
4r
=40
1r
=41
2c
4B
16b
8bb
16aa[
=42
16aa]
8gg
8ff#
8ee
16ff#
8dd#
16cc#
16b
8b
8dd#
=43
8ee
8ff#
8gg
8gg#
8aa
8bb
8ccc
8cc
=44
8dd
8ee
8ff#
8ff#
8gg
8aa
8bb
8b
=45
8cc
8dd
8ee
8ee
8ff#
8gg
8aa
8a
=46
8b
8cc#
8dd#
8dd#
8ee
8ff#
8gg
8b[
=47
16b]
8cc
8dd
8ee
8g#
8a
8b
8cc
16e
=48
2d#
4.cc
8e
=49
2f
8cc
8gg
8gg
8gg
=50
8gg
8c
8c
8c
8a#
8gg
8gg
8gg
=51
8gg
8A#
8A#
8A#
8B
8gg
8gg
8gg
=52
8gg
8ff#
8bb
8ccc
8aa#
8bb
8gg#
8aa
=53
8ff#
8gg
8dd#
8ee
4a#
4a
=54
8g
32g
16.b
32a
16.cc
32f#
16.dd#
32g
16.ee
32dd#
16.ff#
32ee
16.gg
32ff#
16.aa
=55
32gg
16.bb
32bb
16.eee
8r
32cc
16.ccc
8r
32a
16.aa
8r
32g
16.gg
=56
8r
8ff#
8ff#
8ff#
4ff#
8dd#
16cc#
16b
=57
8ee
8r
16dd#
16ee
16aa
16gg
8ff#
16ee#
16ff#
16ee#
16ff#
16ee#
16ff#
=58
16ee#
16ff#
16aa
16ff#
16ee
16dd#
16cc#
16b
8ee
8r
16dd#
16ee
16ff#
16ee
=59
16gg
16ff#
16aa
16gg
16bb
16aa
16gg
16ff#
16ee
16dd#
16ff#
16ee
16gg
16ff#
16aa
16gg
=60
16ff#
16ee
16dd#
16ee
16ff#
16ee
16gg
16ff#
16ee
16dd
16cc
16b
16dd
16cc
16ee
16dd
=61
16ff
16ee
16dd
16cc
16b
16cc
16dd
16cc
16b
16a
16g#
16a
16b
16a
16cc
16b
=62
16dd
16cc
16ee
16b
8cc
16b
16a
16g
16f#
16a
16g
16b
16a
16cc
16b
=63
16dd
16cc
16bb
16aa
16gg
16ff#
16ee
16dd
16cc#
16dd
16ee
16dd
16ff#
16ee
16gg
16ff#
=64
16aa
16gg
16ff#
16ee
16dd
16cc#
16ee
16dd
16ff#
16ee
16gg
16ff#
16aa
16gg
16bb
16aa
=65
8ccc
8bb
8ddd
8ccc
8bb
8aa
8gg
8ff#
=66
8ee
8dd
16cc#
16dd
16ee
16dd
2dd[
=67
8dd]
8dd
8ee
8b
8dd
8cc
16b
16cc
16dd
16cc
=68
2..cc
8d
=69
4g
32a
16.cc
32f#
16.a
32g
16.b
8d
8r
16dd
16b
=70
4b
8cc
16b
16cc
8cc
8a
8a
16ee
16cc
=71
8cc
8b
8b
16gg
16ee
4dd
8r
8d
=72
4g
32a
16.cc
32f#
16.a
32g
16.b-
8d
4r
=73
2e-
4B
8gg
8gg
=74
8gg
8gg
8gg
8gg
8gg
8gg
8gg
8gg
=75
8gg
8gg
8gg
8gg
8gg
8cc#
8cc#
8cc#
=76
8dd
8ee
8ff#
8gg
8aa
8bb
8ccc
8aa
=77
8bb
32b
16.dd
32cc
16.ee
32a
16.ff#
32b
16.gg
32ff#
16.aa
32gg
16.bb
32aa
16.ccc
=78
32bb
16.ddd
32dd
16.gg
8r
32e
16.ee
8r
32c
16.cc
8r
32B
16.b
=79
8r
8a
8a
8a
4a
16g
16f#
16e
16d
=80
8g
8r
16f#
16g
16cc
16b
8a
16g#
16a
16g#
16a
16g#
16a
=81
16g#
16a
16b
16a
16g
16f#
16e
16d
8g
8r
24G
24dd
24dd
24dd
24dd
24dd
=82
24dd
24dd
24dd
24dd
24dd
24dd
24ff#
24ff#
24ff#
24dd
24dd
24dd
24gg
24gg
24gg
24dd
24dd
24dd
24G
24dd
24dd
24dd
24dd
24dd
=83
24dd
24dd
24dd
24dd
24dd
24dd
24ff#
24ff#
24ff#
24dd
24dd
24dd
24gg
24gg
24gg
24dd
24dd
24dd
24ff
24ff
24ff
24dd
24dd
24dd
=84
6..ee
24ff#
24dd#
24ee
24ff#
24dd#
24ee
24ccc
24ccc
24ccc
24ccc
24ccc
24ccc
24bb
24aa
24gg
24ff#
24ee
=85
24dd
24bb
24aa
24gg
24ff#
24ee
24dd
24ee
24dd
8cc
24b
24bb
24aa
24gg
24ff#
24ee
24dd
24ee
24dd
8cc
=86
24b
24bb
24gg
24dd
24gg
24dd
24b
24dd
24b
24g
24b
24g
8d
8f
8f
8f
=87
4f
4d
8e
8gg
8ee
8cc
=88
24b
24a
24g
24f#
24e
24d
4a
4g
8r
8ff#
=89
4gg
8r
8ff#
4gg
4r
==
*-
